icons/svg/vpn.svg

﻿<?xml version="1.0" encoding="utf-8"?>
<!DOCTYPE svg PUBLIC "-//W3C//DTD SVG 1.1//EN" "http://www.w3.org/Graphics/SVG/1.1/DTD/svg11.dtd">
<svg xmlns="http://www.w3.org/2000/svg" xmlns:xlink="http://www.w3.org/1999/xlink" version="1.1" baseProfile="full" width="24" height="24" viewBox="0 0 24.00 24.00" enable-background="new 0 0 24.00 24.00" xml:space="preserve">
	<path fill="#000000" fill-opacity="1" stroke-linejoin="round" d="M 9,5L 15,5L 12,8L 9,5 Z M 10.5165,14.6586C 10.1955,15.0134 10,15.4839 10,16C 10,17.1046 10.8954,18 12,18C 13.1046,18 14,17.1046 14,16C 14,15.4477 13.7761,14.9477 13.4142,14.5858L 14.8284,13.1716C 15.5523,13.8954 16,14.8954 16,16C 16,18.2091 14.2091,20 12,20C 9.79086,20 8,18.2091 8,16C 8,14.9331 8.41772,13.9637 9.09854,13.2465L 9.09422,13.2422L 16.1653,6.17113L 16.1686,6.1745C 16.8927,5.44892 17.8939,5 19,5C 21.2091,5 23,6.79086 23,9C 23,11.2091 21.2091,13 19,13C 17.8954,13 16.8954,12.5523 16.1716,11.8284L 17.5858,10.4142C 17.9477,10.7761 18.4477,11 19,11C 20.1046,11 21,10.1046 21,9.00001C 21,7.89544 20.1046,7.00001 19,7.00001C 18.4477,7.00001 17.9477,7.22386 17.5858,7.58579L 10.5165,14.6586 Z M 6.41422,7.58578C 6.05229,7.22386 5.55229,7.00001 5,7.00001C 3.89543,7.00001 3,7.89544 3,9C 3,10.1046 3.89543,11 5,11C 5.55229,11 6.05229,10.7761 6.41422,10.4142L 7.82843,11.8284C 7.10457,12.5523 6.10457,13 5,13C 2.79086,13 1,11.2091 1,9C 1,6.79086 2.79086,5 5,5C 6.10606,5 7.10726,5.44892 7.83135,6.1745L 7.83471,6.17113L 10.5914,8.92784L 9.17315,10.3461L 6.41422,7.58578 Z "/>
</svg>

<svg xmlns="http://www.w3.org/2000/svg" version="1.1" baseProfile="full" width="24" height="24" viewBox="0 0 24.00 24.00" xml:space="preserve"><path fill="#000" fill-opacity="1" stroke-linejoin="round" d="M9 5h6l-3 3-3-3zm1.517 9.66c-.322.353-.517.824-.517 1.34 0 1.105.895 2 2 2s2-.895 2-2c0-.552-.224-1.052-.586-1.414l1.414-1.414C15.552 13.895 16 14.895 16 16c0 2.21-1.79 4-4 4s-4-1.79-4-4c0-1.067.418-2.036 1.1-2.754l-.006-.004 7.07-7.07.005.003C16.892 5.449 17.893 5 19 5c2.21 0 4 1.79 4 4s-1.79 4-4 4c-1.105 0-2.105-.448-2.828-1.172l1.414-1.414c.362.362.862.586 1.414.586 1.105 0 2-.895 2-2s-.895-2-2-2c-.552 0-1.052.224-1.414.586l-7.07 7.073zM6.414 7.585C6.052 7.224 5.552 7 5 7c-1.105 0-2 .895-2 2s.895 2 2 2c.552 0 1.052-.224 1.414-.586l1.414 1.414C7.105 12.552 6.105 13 5 13c-2.21 0-4-1.79-4-4s1.79-4 4-4c1.106 0 2.107.45 2.83 1.175l.005-.004L10.59 8.93l-1.417 1.418-2.76-2.76z"/></svg>
